X:1
T:152 - Pastor Divino
T:Letra: Dorothy Ann Thrupp (1779-1847)
T:Trad.: Sarah Poulton Kalley (1825-1907)
T:Música: William Batchelder Bradbury (1816-1868)
M:4/4
L:1/8
Q:1/4=90
K:Ebmaj
V:1
"Eb"G2G2 GF GA | (B2 e2) (B2G2) | "Bb"F2G2 "Bb7"Ac BA | "Eb"G6 z2 | G2G2 GF GA | (B2 e2) (B2G2) | "Bb"F2G2 "Bb7"Ac BA | "Eb"G4 z2 BB | "Ab"c2e4dc | "Eb"B2G4GG | "Bb"F2c2B2 "Bb7"A2 | "Eb"G4 z2 BB | "Ab"c2e4dc | "Eb"B2He4EF | G2B2 "Bb7"A3F | "Eb"E6z2 |]
w: 1.~Ou-ve-nos, Pas-tor di-vi_no,_ Nós, que nes-te bom lu-gar, Teu re-ba-nho con-gre-ga_do,_ De-se-ja-mos-Tea-do-rar. Cris-toa-ma-do, Cris-toa-ma-do, Vem teu po-voa-ben-ço-ar. Cris-toa-ma-do, Cris-toa-ma-do, Vem teu po-voa-ben-ço-ar.
w: 2.~Ao per-di-do no pe-ca_do_ Seu pe-ri-go fa-ze ver; Cha-maos po-bres en-ga-na_dos,_ Fa-zeos tu-a voz ou-vir; Aos en-fer-mos, aos en-fer-mos, Mes-tre, dig-na-Tea-cu-dir. Aos en-fer-mos, aos en-fer-mos, Mes-tre, dig-na-Tea-cu-dir.
w: 3.~Tra-zeo po-bre des-gar-ra_do_ Ao a-pris-co teu, Se-nhor; To-mao ten-ro cor-dei-ri_nho_ No re-ga-ço teu, Pas-tor; Dá-lheos pas-tos, dá-lheos pas-tos De ce-les-te do-cea-mor. Dá-lheos pas-tos, dá-lheos pas-tos De ce-les-te do-cea-mor.
w: 4.~Ó Je-sus, es-cu-tao ro_go,_ Nos-sahu-mil-de pe-ti-ção; Vem en-cher o teu re-ba_nho_ De sin-ce-ra de-vo-ção; Can-ta-re-mos, can-ta-re-mos, Tu-aa-fá-vel pro-te-ção. Can-ta-re-mos, can-ta-re-mos, Tu-aa-fá-vel pro-te-ção.
W: 
W:
W: 1. Ouve-nos, Pastor divino,
W: Nós, que neste bom lugar,
W: Teu rebanho congregado,
W: Desejamos-Te adorar.
W: Cristo amado, Cristo amado,
W: Vem teu povo abençoar.
W: Cristo amado, Cristo amado,
W: Vem teu povo abençoar.
W: 
W: 2. Ao perdido no pecado
W: Seu perigo faze ver;
W: Chama os pobres enganados,
W: Faze-os tua voz ouvir;
W: Aos enfermos, aos enfermos,
W: Mestre, digna-Te acudir.
W: Aos enfermos, aos enfermos,
W: Mestre, digna-Te acudir.
W: 
W:
W:
W: 3. Traze o pobre desgarrado
W: Ao aprisco teu, Senhor;
W: Toma o tenro cordeirinho
W: No regaço teu, Pastor;
W: Dá-lhe os pastos, dá-lhe os pastos
W: De celeste doce amor.
W: Dá-lhe os pastos, dá-lhe os pastos
W: De celeste doce amor.
W: 
W: 4. Ó Jesus, escuta o rogo,
W: Nossa humilde petição;
W: Vem encher o teu rebanho
W: De sincera devoção;
W: Cantaremos, cantaremos,
W: Tua afável proteção.
W: Cantaremos, cantaremos,
W: Tua afável proteção.
W:   
W: 





